src/assets/icons/filters/categories/laundry.svg

<svg width="39" height="48" viewBox="0 0 39 48" fill="none" xmlns="http://www.w3.org/2000/svg">
<path fill-rule="evenodd" clip-rule="evenodd" d="M34.436 0H4.56158C3.35215 0.0012449 2.19262 0.482237 1.33743 1.33743C0.482237 2.19262 0.0012449 3.35215 0 4.56158V41.9367C0 44.4307 1.49858 46.4591 4.49887 46.492V46.4999C4.49887 47.3275 5.16979 48 5.99902 48H8.99932C9.39691 47.9996 9.77807 47.8414 10.0591 47.5601C10.3401 47.2788 10.4979 46.8974 10.4979 46.4999H28.4981C28.4981 47.3275 29.1706 48 29.9982 48H32.9985C33.3964 48 33.778 47.8419 34.0593 47.5606C34.3406 47.2793 34.4987 46.8977 34.4987 46.4999L34.4971 46.492C35.6954 46.476 36.8392 45.9892 37.6815 45.1369C38.5239 44.2845 38.9972 43.1351 38.9991 41.9367V4.56158C38.9979 3.35188 38.5167 2.19211 37.6611 1.33688C36.8056 0.481639 35.6457 0.000829908 34.436 0V0Z" fill="#CFD8DC"/>
<path fill-rule="evenodd" clip-rule="evenodd" d="M35.9989 41.9367C35.9989 42.7989 35.2982 43.4996 34.436 43.4996H4.56163C4.14726 43.4992 3.74999 43.3344 3.45699 43.0414C3.16398 42.7484 2.99919 42.3511 2.99878 41.9367V4.56159C2.99878 3.69943 3.69947 3.00031 4.56163 3.00031H34.436C35.2982 3.00031 35.9989 3.701 35.9989 4.56159V41.9367ZM19.4973 37.499C22.2809 37.4957 24.9495 36.3884 26.9178 34.4201C28.8861 32.4518 29.9934 29.7831 29.9967 26.9995C29.9938 24.2156 28.8867 21.5466 26.9184 19.5779C24.95 17.6093 22.2811 16.5018 19.4973 16.4985C16.7131 16.5014 14.0438 17.6087 12.0751 19.5774C10.1064 21.5461 8.99914 24.2154 8.99623 26.9995C8.99955 29.7834 10.107 32.4523 12.0757 34.4207C14.0443 36.389 16.7134 37.4961 19.4973 37.499V37.499Z" fill="white" fill-opacity="0.3"/>
<path fill-rule="evenodd" clip-rule="evenodd" d="M19.4973 37.499C16.7137 37.4957 14.045 36.3884 12.0767 34.4201C10.1084 32.4518 9.00112 29.7832 8.9978 26.9996C9.00071 24.2154 10.108 21.5461 12.0767 19.5774C14.0454 17.6087 16.7147 16.5014 19.4988 16.4985C22.2827 16.5019 24.9516 17.6093 26.92 19.578C28.8883 21.5466 29.9954 24.2157 29.9983 26.9996C29.995 29.7832 28.8877 32.4518 26.9194 34.4201C24.9511 36.3884 22.2824 37.4957 19.4988 37.499" fill="white" fill-opacity="0.5"/>
<path fill-rule="evenodd" clip-rule="evenodd" d="M19.4987 37.499C16.7151 37.4957 14.0465 36.3884 12.0782 34.4201C10.1098 32.4518 9.00259 29.7831 8.99927 26.9995C9.00259 24.2159 10.1098 21.5473 12.0782 19.5789C14.0465 17.6106 16.7151 16.5034 19.4987 16.5001C22.2826 16.503 24.9517 17.61 26.9203 19.5784C28.889 21.5467 29.9964 24.2156 29.9998 26.9995C29.9964 29.7834 28.889 32.4523 26.9203 34.4206C24.9517 36.389 22.2826 37.4961 19.4987 37.499" fill="white" fill-opacity="0.5"/>
<path fill-rule="evenodd" clip-rule="evenodd" d="M35.9988 41.9367C35.9988 42.7989 35.2981 43.4996 34.436 43.4996H4.56158C4.14721 43.4991 3.74993 43.3344 3.45693 43.0414C3.16393 42.7484 2.99914 42.3511 2.99873 41.9367V4.56158C2.99873 3.69942 3.69942 3.00029 4.56158 3.00029H34.436C35.2981 3.00029 35.9988 3.70099 35.9988 4.56158V41.9367ZM34.436 0C35.6457 0.000829908 36.8056 0.481639 37.6611 1.33688C38.5167 2.19211 38.9979 3.35188 38.9991 4.56158V41.9367C38.9972 43.1351 38.5239 44.2845 37.6815 45.1369C36.8392 45.9892 35.6954 46.476 34.4971 46.492L34.4987 46.4999C34.4987 46.8977 34.3406 47.2793 34.0593 47.5606C33.778 47.8419 33.3964 48 32.9985 48H29.9998C29.6019 48 29.2204 47.8419 28.939 47.5606C28.6577 47.2793 28.4997 46.8977 28.4997 46.4999H10.4995C10.4995 46.8977 10.3414 47.2793 10.0601 47.5606C9.77875 47.8419 9.39718 48 8.99932 48H5.99902C5.60116 48 5.21959 47.8419 4.93826 47.5606C4.65692 47.2793 4.49887 46.8977 4.49887 46.4999V46.492C1.49858 46.4607 0 44.4323 0 41.9367V4.56158C0.0012449 3.35215 0.482237 2.19262 1.33743 1.33743C2.19262 0.482237 3.35215 0.0012449 4.56158 0H34.436ZM30.434 6.4348C30.1644 6.72009 29.9998 7.10885 29.9998 7.50073C29.9998 7.88949 30.1644 8.27981 30.434 8.5651C30.7193 8.83472 31.1081 8.99931 31.5 8.99931C31.8887 8.99931 32.279 8.83472 32.5643 8.5651C32.8339 8.27981 32.9985 7.88949 32.9985 7.49917C32.9926 7.10196 32.8377 6.72149 32.5643 6.43323C32.2742 6.16553 31.8939 6.01689 31.4992 6.01689C31.1044 6.01689 30.7241 6.16553 30.434 6.43323V6.4348ZM26.9995 8.99931C27.3898 8.99931 27.7786 8.83472 28.0654 8.5651C28.3335 8.27981 28.4997 7.88949 28.4997 7.49917C28.4997 7.10885 28.3335 6.72009 28.0639 6.43323C27.509 5.87989 26.4885 5.87989 25.9336 6.43323C25.6602 6.72149 25.5052 7.10196 25.4994 7.49917C25.4994 7.88949 25.664 8.27981 25.9336 8.5651C26.2189 8.83472 26.6076 8.99931 26.9995 8.99931ZM22.4991 8.99931C22.8894 8.99931 23.2797 8.83472 23.565 8.5651C23.8346 8.27981 23.9992 7.88949 23.9992 7.49917C23.9992 7.10885 23.8346 6.72009 23.5634 6.43323C22.9944 5.87989 21.9896 5.87989 21.4347 6.43323C21.1604 6.72099 21.0048 7.10166 20.9989 7.49917C20.9989 7.88949 21.1635 8.27981 21.4347 8.5651C21.7184 8.83472 22.1088 8.99931 22.4991 8.99931ZM7.49917 8.99931H14.9999C15.3978 8.99931 15.7793 8.84126 16.0607 8.55993C16.342 8.2786 16.5001 7.89703 16.5001 7.49917C16.5001 7.1013 16.342 6.71974 16.0607 6.4384C15.7793 6.15707 15.3978 5.99902 14.9999 5.99902H7.49917C7.1013 5.99902 6.71974 6.15707 6.4384 6.4384C6.15707 6.71974 5.99902 7.1013 5.99902 7.49917C5.99902 7.89703 6.15707 8.2786 6.4384 8.55993C6.71974 8.84126 7.1013 8.99931 7.49917 8.99931V8.99931ZM19.4988 37.499C16.7152 37.4956 14.0465 36.3884 12.0782 34.4201C10.1099 32.4518 9.00264 29.7831 8.99932 26.9995C9.00264 24.2159 10.1099 21.5472 12.0782 19.5789C14.0465 17.6106 16.7152 16.5034 19.4988 16.5C22.2827 16.503 24.9517 17.61 26.9204 19.5784C28.889 21.5467 29.9965 24.2156 29.9998 26.9995C29.9965 29.7834 28.889 32.4523 26.9204 34.4206C24.9517 36.389 22.2827 37.4961 19.4988 37.499V37.499ZM5.99902 26.9995C5.99902 34.4422 12.056 40.4993 19.4988 40.4993C26.9415 40.4993 32.9985 34.4422 32.9985 26.9995C32.9985 19.5568 26.9415 13.4998 19.4988 13.4998C12.056 13.4998 5.99902 19.5568 5.99902 26.9995ZM19.4988 19.4988C17.5104 19.5013 15.6041 20.2924 14.1983 21.6985C12.7924 23.1047 12.0017 25.0111 11.9996 26.9995C11.9996 27.3974 12.1577 27.7789 12.439 28.0603C12.7203 28.3416 13.1019 28.4997 13.4998 28.4997C13.8976 28.4997 14.2792 28.3416 14.5605 28.0603C14.8419 27.7789 14.9999 27.3974 14.9999 26.9995C15.0016 25.8068 15.4761 24.6635 16.3194 23.8202C17.1628 22.9768 18.3061 22.5023 19.4988 22.5006C19.8968 22.5006 20.2786 22.3425 20.5601 22.061C20.8416 21.7795 20.9997 21.3978 20.9997 20.9997C20.9997 20.6016 20.8416 20.2199 20.5601 19.9384C20.2786 19.6569 19.8968 19.4988 19.4988 19.4988V19.4988Z" fill="#253238"/>
</svg>

<svg width="39" height="48" viewBox="0 0 39 48" fill="none" xmlns="http://www.w3.org/2000/svg"><path fill-rule="evenodd" clip-rule="evenodd" d="M34.436 0H4.562A4.566 4.566 0 000 4.562v37.375c0 2.494 1.499 4.522 4.499 4.555v.008c0 .828.67 1.5 1.5 1.5h3a1.5 1.5 0 001.499-1.5h18c0 .828.673 1.5 1.5 1.5h3a1.5 1.5 0 001.5-1.5v-.008a4.563 4.563 0 004.501-4.555V4.562A4.566 4.566 0 0034.436 0z" fill="#CFD8DC"/><path fill-rule="evenodd" clip-rule="evenodd" d="M35.999 41.937c0 .862-.7 1.563-1.563 1.563H4.562a1.564 1.564 0 01-1.563-1.563V4.562c0-.863.7-1.562 1.563-1.562h29.874c.862 0 1.563.701 1.563 1.562v37.375zm-16.502-4.438a10.512 10.512 0 0010.5-10.5 10.512 10.512 0 00-10.5-10.5 10.512 10.512 0 00-10.5 10.5 10.512 10.512 0 0010.5 10.5z" fill="#fff" fill-opacity=".3"/><path fill-rule="evenodd" clip-rule="evenodd" d="M19.497 37.499a10.512 10.512 0 01-10.5-10.5A10.512 10.512 0 0119.5 16.5a10.512 10.512 0 0110.5 10.5 10.512 10.512 0 01-10.5 10.5" fill="#fff" fill-opacity=".5"/><path fill-rule="evenodd" clip-rule="evenodd" d="M19.499 37.499a10.512 10.512 0 01-10.5-10.5A10.512 10.512 0 0119.5 16.5a10.512 10.512 0 0110.5 10.5 10.512 10.512 0 01-10.5 10.499" fill="#fff" fill-opacity=".5"/><path fill-rule="evenodd" clip-rule="evenodd" d="M35.999 41.937c0 .862-.7 1.563-1.563 1.563H4.562a1.565 1.565 0 01-1.563-1.563V4.562c0-.863.7-1.562 1.563-1.562h29.874c.862 0 1.563.701 1.563 1.562v37.375zM34.436 0a4.566 4.566 0 014.563 4.562v37.375a4.563 4.563 0 01-4.502 4.555l.002.008a1.5 1.5 0 01-1.5 1.5h-3a1.5 1.5 0 01-1.5-1.5h-18A1.5 1.5 0 019 48H6a1.5 1.5 0 01-1.5-1.5v-.008c-3-.031-4.499-2.06-4.499-4.555V4.562A4.566 4.566 0 014.562 0h29.874zm-4.002 6.435C30.164 6.72 30 7.109 30 7.5c0 .388.164.779.434 1.064.285.27.674.434 1.066.434a1.58 1.58 0 001.064-.434 1.58 1.58 0 00.434-1.066 1.583 1.583 0 00-.434-1.066 1.57 1.57 0 00-2.13 0v.002zM27 8.999c.39 0 .779-.164 1.065-.434.268-.285.435-.676.435-1.066s-.166-.779-.436-1.066c-.555-.553-1.576-.553-2.13 0a1.583 1.583 0 00-.435 1.066c0 .39.165.78.435 1.066.285.27.674.434 1.066.434zm-4.5 0c.39 0 .78-.164 1.065-.434a1.58 1.58 0 00.434-1.066c0-.39-.164-.779-.436-1.066-.569-.553-1.573-.553-2.128 0-.275.288-.43.669-.436 1.066 0 .39.165.78.436 1.066.283.27.674.434 1.064.434zm-15 0H15a1.5 1.5 0 000-3H7.5a1.5 1.5 0 000 3zm11.999 28.5a10.512 10.512 0 01-10.5-10.5A10.512 10.512 0 0119.5 16.5a10.512 10.512 0 0110.5 10.5 10.512 10.512 0 01-10.5 10.499zm-13.5-10.5c0 7.443 6.057 13.5 13.5 13.5s13.5-6.057 13.5-13.5c0-7.442-6.058-13.5-13.5-13.5-7.443 0-13.5 6.058-13.5 13.5zm13.5-7.5a7.509 7.509 0 00-7.5 7.5 1.5 1.5 0 003 0 4.505 4.505 0 014.5-4.498 1.5 1.5 0 000-3.002z" fill="#253238"/></svg>
